!!!SOCIAL_FUNCTION:	war songs
!!!PDT:	1909
!!!OTL: No_160_Scalp_Song.krn
!!!REG: Great_Lakes
!!!LANG: Non-Tone
!!!LING_GROUP: Algonquin
**kern	**kern
*staff2	*staff1
=1-	=1-
*clefF4	*clefF4
*k[f#]	*k[f#]
*M3/4	*M3/4
2.r	8e\L
.	8e\J
.	8e\L
.	8e\J
.	8e\
.	24e\LL
.	24B\
.	24B\JJ
=2	=2
.	dq/
12GG^/	8e\L
12r	.
.	8e\J
12GG/	.
12GG^/	8e\L
12r	.
.	8e\J
12GG/	.
12GG^/	8e\L
12r	.
.	8e\J
12GG/	.
=3	=3
2.r	8e\L
.	8e\J
.	8e\L
.	8e\J
.	16B\LL
.	16A\
.	16G\
.	16E\JJ
=4	=4
2.r	8G\L
.	8G\J
.	8G\L
.	8G\J
.	8G\L
.	8G\J
=5||	=5||
*M2/4	*M2/4
2r	8e\L
.	8B\J
.	8e\L
.	8B\J
=6	=6
2r	16B\LL
.	16A\
.	16G\
.	16A\JJ
.	8G\L
.	8E\J
=7	=7
2r	8G\L
.	8G\J
.	8G\L
.	8G\J
=8||	=8||
*M3/4	*M3/4
2.r	8G\L
.	8G\J
.	8G\L
.	8G\J
.	8G\
.	24E/LL
.	24BB/
.	24BB/JJ
=9||	=9||
*M2/4	*M2/4
2r	8E\L
.	8E\J
.	8E\L
.	8E\J
=10	=10
2r	8E\L
.	8E\J
.	8E\L
.	8E\J
=11	=11
2r	4E\
.	4G\
=12	=12
2r	4E\
.	4G\
=13||	=13||
*M3/4	*M3/4
2.r	16A\LL
.	16G\
.	16A\
.	16G\JJ
.	8E\L
.	8E\J
.	8E\
.	24E/LL
.	24BB/
.	24BB/JJ
=14||	=14||
*M2/4	*M2/4
2r	8E\L
.	8E\J
.	8E\L
.	8E\J
=15	=15
2r	8E\L
.	8E\J
.	8E\L
.	8E\J
=16	=16
2r	2E\
==	==
*-	*-
